assets/mautic/mono.svg

<svg viewBox="0 0 24 24" xmlns="http://www.w3.org/2000/svg"><path d="m12 0c-6.606 0-12 5.374-12 12s5.394 12 12 12c6.626 0 12-5.394 12-11.98a11.88 11.88 0 0 0 -.727-4.12.815.815 0 0 0 -1.05-.486.815.815 0 0 0 -.486 1.05c.425 1.132.627 2.324.627 3.556 0 5.717-4.647 10.364-10.364 10.364s-10.363-4.647-10.363-10.364 4.646-10.363 10.363-10.363c1.374 0 2.707.262 3.98.787a.843.843 0 0 0 1.07-.444.843.843 0 0 0 -.444-1.07 11.588 11.588 0 0 0 -4.606-.93zm8.08 4.323-3.595.707.646.647-5.131 5.434-4.384-4.505-2.525 10.445h2.343l1.394-5.799 3.172 3.455 6.788-7.394.646.667zm-2.828 6.445-1.858 1.94 1.03 4.343h2.344z"/></svg>

<svg xmlns="http://www.w3.org/2000/svg" viewBox="0 0 24 24"><path d="M12 0C5.394 0 0 5.374 0 12s5.394 12 12 12c6.626 0 12-5.394 12-11.98a11.9 11.9 0 0 0-.727-4.12.815.815 0 0 0-1.05-.486.815.815 0 0 0-.486 1.05c.425 1.132.627 2.324.627 3.556 0 5.717-4.647 10.364-10.364 10.364S1.637 17.737 1.637 12.02 6.283 1.657 12 1.657c1.374 0 2.707.262 3.98.787A.843.843 0 0 0 17.05 2a.843.843 0 0 0-.444-1.07A11.6 11.6 0 0 0 12 0m8.08 4.323-3.595.707.646.647L12 11.111 7.616 6.606 5.091 17.051h2.343l1.394-5.799L12 14.707l6.788-7.394.646.667zm-2.828 6.445-1.858 1.94 1.03 4.343h2.344z"/></svg>
